icons/svg/seamark_big/small_craft_facility_showers.svg

<?xml version="1.0" encoding="UTF-8" standalone="no"?>
<svg
   xmlns:dc="http://purl.org/dc/elements/1.1/"
   xmlns:cc="http://creativecommons.org/ns#"
   xmlns:rdf="http://www.w3.org/1999/02/22-rdf-syntax-ns#"
   xmlns:svg="http://www.w3.org/2000/svg"
   xmlns="http://www.w3.org/2000/svg"
   xmlns:sodipodi="http://sodipodi.sourceforge.net/DTD/sodipodi-0.dtd"
   xmlns:inkscape="http://www.inkscape.org/namespaces/inkscape"
   width="1060"
   height="1060"
   id="svg2"
   version="1.1"
   inkscape:version="0.48.4 r9939"
   sodipodi:docname="small_craft_facility_nautical_club.svg">
  <defs
     id="defs13">
    <marker
       inkscape:stockid="TriangleOutM"
       orient="auto"
       refY="0.0"
       refX="0.0"
       id="TriangleOutM"
       style="overflow:visible">
      <path
         id="path4014"
         d="M 5.77,0.0 L -2.88,5.0 L -2.88,-5.0 L 5.77,0.0 z "
         style="fill-rule:evenodd;stroke:#000000;stroke-width:1.0pt"
         transform="scale(0.4)" />
    </marker>
    <marker
       inkscape:stockid="TriangleOutS"
       orient="auto"
       refY="0.0"
       refX="0.0"
       id="TriangleOutS"
       style="overflow:visible">
      <path
         id="path4017"
         d="M 5.77,0.0 L -2.88,5.0 L -2.88,-5.0 L 5.77,0.0 z "
         style="fill-rule:evenodd;stroke:#000000;stroke-width:1.0pt"
         transform="scale(0.2)" />
    </marker>
    <marker
       inkscape:stockid="Arrow2Send"
       orient="auto"
       refY="0.0"
       refX="0.0"
       id="Arrow2Send"
       style="overflow:visible;">
      <path
         id="path3902"
         style="fill-rule:evenodd;stroke-width:0.62500000;stroke-linejoin:round;"
         d="M 8.7185878,4.0337352 L -2.2072895,0.016013256 L 8.7185884,-4.0017078 C 6.9730900,-1.6296469 6.9831476,1.6157441 8.7185878,4.0337352 z "
         transform="scale(0.3) rotate(180) translate(-2.3,0)" />
    </marker>
    <marker
       inkscape:stockid="Arrow1Send"
       orient="auto"
       refY="0.0"
       refX="0.0"
       id="Arrow1Send"
       style="overflow:visible;">
      <path
         id="path3884"
         d="M 0.0,0.0 L 5.0,-5.0 L -12.5,0.0 L 5.0,5.0 L 0.0,0.0 z "
         style="fill-rule:evenodd;stroke:#000000;stroke-width:1.0pt;"
         transform="scale(0.2) rotate(180) translate(6,0)" />
    </marker>
    <marker
       inkscape:stockid="Arrow1Lend"
       orient="auto"
       refY="0.0"
       refX="0.0"
       id="Arrow1Lend"
       style="overflow:visible;">
      <path
         id="path3872"
         d="M 0.0,0.0 L 5.0,-5.0 L -12.5,0.0 L 5.0,5.0 L 0.0,0.0 z "
         style="fill-rule:evenodd;stroke:#000000;stroke-width:1.0pt;"
         transform="scale(0.8) rotate(180) translate(12.5,0)" />
    </marker>
    <inkscape:path-effect
       effect="gears"
       id="path-effect3774"
       is_visible="true"
       teeth="6"
       phi="-1.2" />
    <inkscape:path-effect
       effect="bend_path"
       id="path-effect3772"
       is_visible="false"
       bendpath="m 95.790098,316.51174 c 144.429032,-206.42506 223.313032,-11.7428 339.548092,0"
       prop_scale="1.19"
       scale_y_rel="false"
       vertical="false"
       bendpath-nodetypes="cc" />
  </defs>
  <sodipodi:namedview
     pagecolor="#ffffff"
     bordercolor="#666666"
     borderopacity="1"
     objecttolerance="10"
     gridtolerance="10"
     guidetolerance="10"
     inkscape:pageopacity="0"
     inkscape:pageshadow="2"
     inkscape:window-width="1920"
     inkscape:window-height="1004"
     id="namedview11"
     showgrid="false"
     inkscape:zoom="1.1508772"
     inkscape:cx="608.84733"
     inkscape:cy="512.99352"
     inkscape:window-x="1680"
     inkscape:window-y="0"
     inkscape:window-maximized="1"
     inkscape:current-layer="svg2"
     inkscape:snap-object-midpoints="true"
     inkscape:snap-center="true"
     inkscape:snap-global="true"
     inkscape:snap-midpoints="true"
     inkscape:object-nodes="true"
     inkscape:snap-smooth-nodes="true"
     inkscape:object-paths="true">
    <inkscape:grid
       type="xygrid"
       id="grid2989" />
  </sodipodi:namedview>
  <metadata
     id="metadata2975">image/svg+xmlen<rdf:RDF>
  <cc:Work
     rdf:about="">
    <dc:format>image/svg+xml</dc:format>
    <dc:type
       rdf:resource="http://purl.org/dc/dcmitype/StillImage" />
    <dc:title></dc:title>
  </cc:Work>
</rdf:RDF>
</metadata>
  <path
     style="fill:#930093;color:#000000;fill-opacity:1;fill-rule:nonzero;stroke:none;stroke-width:10;marker:none;visibility:visible;display:inline;overflow:visible;enable-background:accumulate"
     inkscape:connector-curvature="0"
     d="M 598.72925,506.35687 H 461.27049 c 0,-32.53845 30.77113,-58.91089 68.72938,-58.91089 37.95826,0 68.72938,26.37244 68.72938,58.91089 z"
     id="path3" />
  <path
     style="font-size:medium;font-style:normal;font-variant:normal;font-weight:normal;font-stretch:normal;text-indent:0;text-align:start;text-decoration:none;line-height:normal;letter-spacing:normal;word-spacing:normal;text-transform:none;direction:ltr;block-progression:tb;writing-mode:lr-tb;text-anchor:start;baseline-shift:baseline;color:#000000;fill:#930093;fill-opacity:1;stroke:none;stroke-width:10;marker:none;visibility:visible;display:inline;overflow:visible;enable-background:accumulate;font-family:Sans;-inkscape-font-specification:Sans;fill-rule:nonzero"
     d="m 451.4375,516.17839 a 9.8194642,9.8194642 0 1 0 0,19.625 l 157.125,0 a 9.8194642,9.8194642 0 1 0 0,-19.625 l -157.125,0 z"
     id="line5"
     inkscape:connector-curvature="0" />
  <path
     style="font-size:medium;font-style:normal;font-variant:normal;font-weight:normal;font-stretch:normal;text-indent:0;text-align:start;text-decoration:none;line-height:normal;letter-spacing:normal;word-spacing:normal;text-transform:none;direction:ltr;block-progression:tb;writing-mode:lr-tb;text-anchor:start;baseline-shift:baseline;color:#000000;fill:#930093;fill-opacity:1;stroke:none;stroke-width:10;marker:none;visibility:visible;display:inline;overflow:visible;enable-background:accumulate;font-family:Sans;-inkscape-font-specification:Sans;fill-rule:nonzero"
     d="m 520.1875,398.36589 0,78.53125 19.625,0 0,-78.53125 -19.625,0 z"
     id="line7"
     inkscape:connector-curvature="0" />
  <path
     style="fill:#930093;color:#000000;fill-opacity:1;fill-rule:nonzero;stroke:none;stroke-width:10;marker:none;visibility:visible;display:inline;overflow:visible;enable-background:accumulate"
     d="m 539.81836,565.26777 c 0,5.4226 -4.39588,9.81848 -9.81848,9.81848 -5.4226,0 -9.81849,-4.39588 -9.81849,-9.81848 0,-5.4226 4.39589,-9.81849 9.81849,-9.81849 5.4226,0 9.81848,4.39589 9.81848,9.81849 z"
     id="circle9"
     inkscape:connector-curvature="0" />
  <path
     style="fill:#930093;color:#000000;fill-opacity:1;fill-rule:nonzero;stroke:none;stroke-width:10;marker:none;visibility:visible;display:inline;overflow:visible;enable-background:accumulate"
     d="m 579.09229,565.26777 c 0,5.4226 -4.39588,9.81848 -9.81848,9.81848 -5.4226,0 -9.81848,-4.39588 -9.81848,-9.81848 0,-5.4226 4.39588,-9.81849 9.81848,-9.81849 5.4226,0 9.81848,4.39589 9.81848,9.81849 z"
     id="circle11"
     inkscape:connector-curvature="0" />
  <path
     style="fill:#930093;color:#000000;fill-opacity:1;fill-rule:nonzero;stroke:none;stroke-width:10;marker:none;visibility:visible;display:inline;overflow:visible;enable-background:accumulate"
     d="m 500.54443,565.26777 c 0,5.4226 -4.39589,9.81848 -9.81848,9.81848 -5.4226,0 -9.81849,-4.39588 -9.81849,-9.81848 0,-5.4226 4.39589,-9.81849 9.81849,-9.81849 5.42259,0 9.81848,4.39589 9.81848,9.81849 z"
     id="circle13"
     inkscape:connector-curvature="0" />
  <path
     style="fill:#930093;color:#000000;fill-opacity:1;fill-rule:nonzero;stroke:none;stroke-width:10;marker:none;visibility:visible;display:inline;overflow:visible;enable-background:accumulate"
     d="m 539.81836,643.81563 c 0,5.4226 -4.39588,9.81848 -9.81848,9.81848 -5.4226,0 -9.81849,-4.39588 -9.81849,-9.81848 0,-5.4226 4.39589,-9.81848 9.81849,-9.81848 5.4226,0 9.81848,4.39588 9.81848,9.81848 z"
     id="circle15"
     inkscape:connector-curvature="0" />
  <path
     style="fill:#930093;color:#000000;fill-opacity:1;fill-rule:nonzero;stroke:none;stroke-width:10;marker:none;visibility:visible;display:inline;overflow:visible;enable-background:accumulate"
     d="m 579.09229,643.81563 c 0,5.4226 -4.39588,9.81848 -9.81848,9.81848 -5.4226,0 -9.81848,-4.39588 -9.81848,-9.81848 0,-5.4226 4.39588,-9.81848 9.81848,-9.81848 5.4226,0 9.81848,4.39588 9.81848,9.81848 z"
     id="circle17"
     inkscape:connector-curvature="0" />
  <path
     style="fill:#930093;color:#000000;fill-opacity:1;fill-rule:nonzero;stroke:none;stroke-width:10;marker:none;visibility:visible;display:inline;overflow:visible;enable-background:accumulate"
     d="m 618.36622,643.81563 c 0,5.4226 -4.39588,9.81848 -9.81848,9.81848 -5.4226,0 -9.81848,-4.39588 -9.81848,-9.81848 0,-5.4226 4.39588,-9.81848 9.81848,-9.81848 5.4226,0 9.81848,4.39588 9.81848,9.81848 z"
     id="circle19"
     inkscape:connector-curvature="0" />
  <path
     style="fill:#930093;color:#000000;fill-opacity:1;fill-rule:nonzero;stroke:none;stroke-width:10;marker:none;visibility:visible;display:inline;overflow:visible;enable-background:accumulate"
     d="m 500.54443,643.81563 c 0,5.4226 -4.39589,9.81848 -9.81848,9.81848 -5.4226,0 -9.81849,-4.39588 -9.81849,-9.81848 0,-5.4226 4.39589,-9.81848 9.81849,-9.81848 5.42259,0 9.81848,4.39588 9.81848,9.81848 z"
     id="circle21"
     inkscape:connector-curvature="0" />
  <path
     style="fill:#930093;color:#000000;fill-opacity:1;fill-rule:nonzero;stroke:none;stroke-width:10;marker:none;visibility:visible;display:inline;overflow:visible;enable-background:accumulate"
     d="m 461.2705,643.81563 c 0,5.4226 -4.39589,9.81848 -9.81849,9.81848 -5.42259,0 -9.81848,-4.39588 -9.81848,-9.81848 0,-5.4226 4.39589,-9.81848 9.81848,-9.81848 5.4226,0 9.81849,4.39588 9.81849,9.81848 z"
     id="circle23"
     inkscape:connector-curvature="0" />
  <path
     style="fill:#930093;color:#000000;fill-opacity:1;fill-rule:nonzero;stroke:none;stroke-width:10;marker:none;visibility:visible;display:inline;overflow:visible;enable-background:accumulate"
     d="m 520.18139,604.5417 c 0,5.4226 -4.39588,9.81848 -9.81848,9.81848 -5.4226,0 -9.81848,-4.39588 -9.81848,-9.81848 0,-5.4226 4.39588,-9.81848 9.81848,-9.81848 5.4226,0 9.81848,4.39588 9.81848,9.81848 z"
     id="circle25"
     inkscape:connector-curvature="0" />
  <path
     style="fill:#930093;color:#000000;fill-opacity:1;fill-rule:nonzero;stroke:none;stroke-width:10;marker:none;visibility:visible;display:inline;overflow:visible;enable-background:accumulate"
     d="m 559.45533,604.5417 c 0,5.4226 -4.39589,9.81848 -9.81849,9.81848 -5.4226,0 -9.81848,-4.39588 -9.81848,-9.81848 0,-5.4226 4.39588,-9.81848 9.81848,-9.81848 5.4226,0 9.81849,4.39588 9.81849,9.81848 z"
     id="circle27"
     inkscape:connector-curvature="0" />
  <path
     style="fill:#930093;color:#000000;fill-opacity:1;fill-rule:nonzero;stroke:none;stroke-width:10;marker:none;visibility:visible;display:inline;overflow:visible;enable-background:accumulate"
     d="m 598.72926,604.5417 c 0,5.4226 -4.39588,9.81848 -9.81848,9.81848 -5.42261,0 -9.81849,-4.39588 -9.81849,-9.81848 0,-5.4226 4.39588,-9.81848 9.81849,-9.81848 5.4226,0 9.81848,4.39588 9.81848,9.81848 z"
     id="circle29"
     inkscape:connector-curvature="0" />
  <path
     style="fill:#930093;color:#000000;fill-opacity:1;fill-rule:nonzero;stroke:none;stroke-width:10;marker:none;visibility:visible;display:inline;overflow:visible;enable-background:accumulate"
     d="m 480.90746,604.5417 c 0,5.4226 -4.39588,9.81848 -9.81848,9.81848 -5.4226,0 -9.81848,-4.39588 -9.81848,-9.81848 0,-5.4226 4.39588,-9.81848 9.81848,-9.81848 5.4226,0 9.81848,4.39588 9.81848,9.81848 z"
     id="circle31"
     inkscape:connector-curvature="0" />
</svg>

<svg width="1060" height="1060" viewBox="0 0 1060 1060" fill="none" xmlns="http://www.w3.org/2000/svg">
<path d="M598.729 506.357H461.271C461.271 473.818 492.042 447.446 530 447.446C567.958 447.446 598.729 473.818 598.729 506.357Z" fill="#930093"/>
<path d="M451.437 516.178C450.118 516.129 448.801 516.346 447.567 516.816C446.334 517.287 445.207 518.002 444.256 518.918C443.305 519.834 442.548 520.933 442.031 522.148C441.514 523.363 441.248 524.67 441.248 525.991C441.248 527.311 441.514 528.619 442.031 529.834C442.548 531.049 443.305 532.148 444.256 533.064C445.207 533.98 446.334 534.695 447.567 535.165C448.801 535.636 450.118 535.853 451.437 535.803H608.562C609.882 535.853 611.198 535.636 612.432 535.165C613.666 534.695 614.792 533.98 615.743 533.064C616.695 532.148 617.451 531.049 617.968 529.834C618.485 528.619 618.751 527.311 618.751 525.991C618.751 524.67 618.485 523.363 617.968 522.148C617.451 520.933 616.695 519.834 615.743 518.918C614.792 518.002 613.666 517.287 612.432 516.816C611.198 516.346 609.882 516.129 608.562 516.178H451.437Z" fill="#930093"/>
<path d="M520.188 398.366V476.897H539.812V398.366H520.188Z" fill="#930093"/>
<path d="M539.819 565.268C539.819 570.69 535.423 575.086 530 575.086C524.578 575.086 520.182 570.69 520.182 565.268C520.182 559.845 524.578 555.449 530 555.449C535.423 555.449 539.819 559.845 539.819 565.268Z" fill="#930093"/>
<path d="M579.092 565.268C579.092 570.69 574.696 575.086 569.274 575.086C563.851 575.086 559.455 570.69 559.455 565.268C559.455 559.845 563.851 555.449 569.274 555.449C574.696 555.449 579.092 559.845 579.092 565.268Z" fill="#930093"/>
<path d="M500.544 565.268C500.544 570.69 496.148 575.086 490.726 575.086C485.303 575.086 480.907 570.69 480.907 565.268C480.907 559.845 485.303 555.449 490.726 555.449C496.148 555.449 500.544 559.845 500.544 565.268Z" fill="#930093"/>
<path d="M539.819 643.816C539.819 649.238 535.423 653.634 530 653.634C524.578 653.634 520.182 649.238 520.182 643.816C520.182 638.393 524.578 633.997 530 633.997C535.423 633.997 539.819 638.393 539.819 643.816Z" fill="#930093"/>
<path d="M579.092 643.816C579.092 649.238 574.696 653.634 569.274 653.634C563.851 653.634 559.455 649.238 559.455 643.816C559.455 638.393 563.851 633.997 569.274 633.997C574.696 633.997 579.092 638.393 579.092 643.816Z" fill="#930093"/>
<path d="M618.366 643.816C618.366 649.238 613.971 653.634 608.548 653.634C603.125 653.634 598.729 649.238 598.729 643.816C598.729 638.393 603.125 633.997 608.548 633.997C613.971 633.997 618.366 638.393 618.366 643.816Z" fill="#930093"/>
<path d="M500.544 643.816C500.544 649.238 496.148 653.634 490.726 653.634C485.303 653.634 480.907 649.238 480.907 643.816C480.907 638.393 485.303 633.997 490.726 633.997C496.148 633.997 500.544 638.393 500.544 643.816Z" fill="#930093"/>
<path d="M461.271 643.816C461.271 649.238 456.875 653.634 451.452 653.634C446.03 653.634 441.634 649.238 441.634 643.816C441.634 638.393 446.03 633.997 451.452 633.997C456.875 633.997 461.271 638.393 461.271 643.816Z" fill="#930093"/>
<path d="M520.181 604.542C520.181 609.964 515.786 614.36 510.363 614.36C504.94 614.36 500.544 609.964 500.544 604.542C500.544 599.119 504.94 594.723 510.363 594.723C515.786 594.723 520.181 599.119 520.181 604.542Z" fill="#930093"/>
<path d="M559.455 604.542C559.455 609.964 555.059 614.36 549.637 614.36C544.214 614.36 539.818 609.964 539.818 604.542C539.818 599.119 544.214 594.723 549.637 594.723C555.059 594.723 559.455 599.119 559.455 604.542Z" fill="#930093"/>
<path d="M598.729 604.542C598.729 609.964 594.333 614.36 588.911 614.36C583.488 614.36 579.092 609.964 579.092 604.542C579.092 599.119 583.488 594.723 588.911 594.723C594.333 594.723 598.729 599.119 598.729 604.542Z" fill="#930093"/>
<path d="M480.907 604.542C480.907 609.964 476.512 614.36 471.089 614.36C465.666 614.36 461.271 609.964 461.271 604.542C461.271 599.119 465.666 594.723 471.089 594.723C476.512 594.723 480.907 599.119 480.907 604.542Z" fill="#930093"/>
</svg>
